X:95
T:Paddy Clancy's
N:Transcribed by Alan Ng
S:as played in Madison, Wisconsin
D:Bothy Band: 1975
Z: id:ng-jigs-19
Z:compare Hendrik Norbeck's transcription hn-jig-151
E:9
R:jig
M:6/8
K:D
afd edB|dcd AFA|dcd ede|~f3 efg|afd edB|dcd AFA|dcd ede|1 fdd d2f:|2 fdc d2e||\
~f3 ~g3|fgf fed|fef gfg|afd e2d|~f3 ~g3|fgf fed|~f3 ede|1 fdc d2e:|2 fdd d2f|]**
